X: 387
U:~=!turn!
M:C
L:1/8
K:Gm
f>dc<f A<fF<A | G>gg>f g>a{ga}b>g | (g//f3/4)(e//d3/4) Tc>d BGG || A | TB>cdf Tcdeg | (B/A/B/c/) (B/c/d/c/) B>FF>A |
[1 TB>cdf Tc>deg | g//f3/4e//d3/4 Tc>d B>GG :| [2 (B/A/B/c/) d>f ( c/B/c/d/) e>g | g//f3/4e//d3/4 (e//d3/4)(c//d3/4) B>GG |]


